assets/icons/trash.svg

<svg width="25" height="25" viewBox="0 0 25 25" fill="none" xmlns="http://www.w3.org/2000/svg">
<g id="trash">
<path id="iconDefault" fill-rule="evenodd" clip-rule="evenodd" d="M7.70831 3.33329C7.70831 2.06764 8.73433 1.04163 9.99998 1.04163H15C16.2656 1.04163 17.2916 2.06764 17.2916 3.33329V4.37496H21.6666C22.0118 4.37496 22.2916 4.65478 22.2916 4.99996C22.2916 5.34514 22.0118 5.62496 21.6666 5.62496H20.625V18.3333C20.625 20.5194 18.8528 22.2916 16.6666 22.2916H8.33331C6.14719 22.2916 4.37498 20.5194 4.37498 18.3333V5.62496H3.33331C2.98814 5.62496 2.70831 5.34514 2.70831 4.99996C2.70831 4.65478 2.98814 4.37496 3.33331 4.37496H7.70831V3.33329ZM8.95831 4.37496H16.0416V3.33329C16.0416 2.758 15.5753 2.29163 15 2.29163H9.99998C9.42468 2.29163 8.95831 2.758 8.95831 3.33329V4.37496ZM5.62498 5.62496V18.3333C5.62498 19.8291 6.83754 21.0416 8.33331 21.0416H16.6666C18.1624 21.0416 19.375 19.8291 19.375 18.3333V5.62496H5.62498ZM9.99998 9.37496C10.3452 9.37496 10.625 9.65478 10.625 9.99996V16.6666C10.625 17.0118 10.3452 17.2916 9.99998 17.2916C9.6548 17.2916 9.37498 17.0118 9.37498 16.6666V9.99996C9.37498 9.65478 9.6548 9.37496 9.99998 9.37496ZM15 9.37496C15.3452 9.37496 15.625 9.65478 15.625 9.99996V16.6666C15.625 17.0118 15.3452 17.2916 15 17.2916C14.6548 17.2916 14.375 17.0118 14.375 16.6666V9.99996C14.375 9.65478 14.6548 9.37496 15 9.37496Z" fill="#18303F"/>
</g>
</svg>

<svg width="25" height="25" viewBox="0 0 25 25" fill="none"><g id="trash"><path id="iconDefault" fill-rule="evenodd" clip-rule="evenodd" d="M7.708 3.333A2.292 2.292 0 0 1 10 1.042h5a2.292 2.292 0 0 1 2.292 2.291v1.042h4.375a.625.625 0 1 1 0 1.25h-1.042v12.708a3.958 3.958 0 0 1-3.958 3.959H8.333a3.958 3.958 0 0 1-3.958-3.959V5.625H3.333a.625.625 0 0 1 0-1.25h4.375V3.333Zm1.25 1.042h7.084V3.333c0-.575-.467-1.041-1.042-1.041h-5c-.575 0-1.042.466-1.042 1.041v1.042Zm-3.333 1.25v12.708a2.708 2.708 0 0 0 2.708 2.709h8.334a2.708 2.708 0 0 0 2.708-2.709V5.625H5.625ZM10 9.375c.345 0 .625.28.625.625v6.667a.625.625 0 1 1-1.25 0V10c0-.345.28-.625.625-.625Zm5 0c.345 0 .625.28.625.625v6.667a.625.625 0 1 1-1.25 0V10c0-.345.28-.625.625-.625Z" fill="#18303F"/></g></svg>
